!!!OTL: 534. Mein Herz ist im Hochland.
!!!ARE: Europa, Mitteleuropa, Deutschland; schottisch?
!!!SCT: B0534
!!!TXL: @@DE
!!!YEM: Copyright 1995, estate of Helmut Schaffrath.
**kern	**text
*ICvox	*
*Ivox	*
*clefG2	*
*M3/4	*
*k[f#c#]	*
*D:	*
!LO:TX:a:t=Mäßig.	!
{4d	Mein
=1	=1
4d	Herʒ
4f#	iſt
4a	im
=2	=2
4.f#	Hoch-
8e	-land,
4d}	mein
=3	=3
{4.dd	Herʒ
8ee	iſt
4ff#	nicht
=4	=4
2f#}	hier!
{8f#L	Mein
8aJ	.
=5	=5
4b	Herʒ
8ddL	iſt
8bJ	.
8aL	im
8f#J	.
=6	=6
4a	Hoch-
8aL	-land,
8f#J	.
8eL	im
8d}J	.
=7	=7
{4dd	wald'-
8ddL	-gen
8bJ	.
8aL	Re-
8f#J	.
=8	=8
2e}	-vier!
{4d	Da
=9	=9
4d	jag'
4f#	ich
4a	das
=10	=10
4.f#	Rothwild,
8e	.
4d}	da
=11	=11
{4.dd	folg'
8ee	ich
(16ddqqL	.
16eeqqJ	.
4ff#)	dem
=12	=12
2f#}	Reh
{8ddL	mein
8aJ	.
=13	=13
4f#	Herʒ
8aL	iſt
8f#J	.
8eL	im
8dJ	.
=14	=14
16f#qq	.
4e	Hoch-
4d}	-land,
{8dL	wo
8f#J	.
=15	=15
4a	im-
4f#	-mer
8eL	ich
8aJ	.
=16	=16
(4gqq	.
2f#)}	geh'.
==	==
!!!AGN: Wander -, Heimat - Lied
!!!GTL: Wanderlieder
!!!ONB: ESAC (Essen Associative Code) Database: BOEHME
!!!AMT: simple triple
!!!AIN: vox
!!!EED: Helmut Schaffrath
!!!EEV: 1.0
!!Schottiſche Mel. 1818.
!!Nach Beethovens Schott. Liedern. op. 108.
!!@@COMMENT:"Gedicht von Ferdinand Freiligrath 1843. Ʒuerſt in deſſen "Gedichten". 6. Aufl. 1843.
!!S. 507. Nach dem Engliſchen des Robert Burns. - Das ſchöne Wanderlied kann auch nach der
!!Melodie "Der Mai iſt gekommen" (Nr. 512) geſungen werden."
!!@@END:
!!!Text: F. Freiligrath
!!!URL-scan: https://archive.org/details/BoehmeVtLieder1895/page/n423/mode/2up
!!!ENC: Anna Maria Matuszewska
!!!EEV: 2024/11/07
*-	*-
